X:1
T:October
T:The Seasons - October
T:Op. 37 bis No. 10, Autumn song
T:Tchaikovsky
C:Tchaikovsky - The Seasons Op. 37 bis No. 10
%%score { ( 1 2 ) | ( 3 4 ) }
L:1/8
Q:1/4=62
M:4/4
K:F
V:1 treble nm="Piano" snm="Pno."
V:2 treble 
V:3 bass 
V:4 bass 
V:1
"^\nAndante dolorosi e molto cantabile\n"!p! z2 (f4 !5!e2- | e!4!d!2!^GA) (d3 c | %2
 B2) (!>!!5!B4 !3!^F2- | F)(Ged) (d2 ^c2) | %4
"_poco cresc." (3z !tenuto!A!tenuto!=B (3!tenuto!^c!tenuto!!1!d!tenuto!!2!e !>!!5!a4- | %5
 (3a!tenuto!A!tenuto!=B (3!tenuto!^c!tenuto!d!tenuto!e (!>!a3 d) | %6
!>(! (3(g=fe){de} (3(d^cd) (!>!f2- (3fed-!>)! | %7
"_dim." (3d)!>!^c=c- (3c!>!=B_B- (3B!>!AF- (3:2:2F2{EF} E | %8
!p! D"_marcato" z z (!2!A- A !3!=B2 !4!^c- | c !5!d2 !4!^c- c!3!=c_B!1!A | G) (!1!D2 !5!d2 B2 A- | %11
 A(G G)^G- G A2 E) |"_poco piu" (3z !tenuto!=c!tenuto!d (3!tenuto!e!f!!tenuto!f!tenuto!g c4 | %13
 (3z !tenuto!A!tenuto!=B (3!tenuto!^c!tenuto!d!tenuto!e A4 | %14
"_dim." (3z (.E.F (3.G.AB-) (3B(!>!BA- (3A!>!^G=G- | %15
 (3G!>!^F=F- (3F!>!^DE- (3:2:2E2 ^C (3:2:2C2 =D) |!p! (3z (GA (3B=Bc) (3:2:2(f2 e) (3:2:2(e2 d) | %17
 d2 c2- (3cc=B (3:2:2(d2 c) | (3z (GA (3B=Bc) (3:2:2(f2 e) (3:2:2(e2 d) | %19
"_poco cresc." d2 ^c2- (3c=dc (3:2:2e2 d | f2 e2- (3e=fe (3:2:2!fermata!b2 a | %21
!mf! (3z (a^g) (3:2:2(b2 a) (3(a=g^f) (3:2:2(a2 g) | %22
 (3z (!5!g!3!^f) (3:2:2(!5!a2 g) (3(g=fe) (3:2:2(g2 f) | %23
 (3z (!5!f!3!e) (3:2:2(!5!g2 f) (3(!>!fed) (3(!>!fed) | (3z (GA) (3(Bfe) (3(d^c^B) (3:2:2(c2 A) | %25
 (3z (a^g) (3:2:2(b2 a) (3(a=g^f) (3:2:2(a2 g) | (3z (g^f) (3:2:2(a2 g) (3(g=fe) (3:2:2(g2 f) | %27
 (3z (fe) (3:2:2(g2 f) (3(!>!fed) (3(!>!fed) | (3z!>(! (GA) (3(Bfe) (3(d^c^B) (3:2:2(c2!>)! A) | %29
 (3z (G^F) (3:2:2(A2 G) [^CG] z z2 | (3z (G^F) (3:2:2(A2 G) [^CG] z z2 |"^rit." z8 | z8 | %33
"^a tempo"!p! z2 (f4 e2- | ed^GA) (d3 c | B2) (!>!B4 ^F2- | F)(Ged) (d2 ^c2) | %37
"_poco cresc." (3z !tenuto!A!tenuto!=B (3!tenuto!^c!tenuto!d!tenuto!e !>!a4- | %38
 (3a!tenuto!A!tenuto!=B (3!tenuto!^c!tenuto!d!tenuto!e (!>!a3 d) | %39
!>(! (3(g=fe){de} (3(d^cd) (!>!f2- (3fed-!>)! | %40
"_dim." (3d)!>!^c=c- (3c!>!=B_B- (3B!>!AF- (3:2:2F2{EF} E |!p! D"_marcato" z z A- A =B2 ^c- | %42
 c d2 ^c- c=c_BA | G (D2 d2 B2 A- | A(G G)^G- G A2 E) | %45
"_poco piu" (3z !tenuto!=c!tenuto!d (3!tenuto!e!f!!tenuto!f!tenuto!g c4 | %46
 (3z !tenuto!A!tenuto!=B (3!tenuto!^c!tenuto!d!tenuto!e A4 | %47
"_dim." (3z (.E.F (3.G.AB-) (3B(!>!BA- (3A!>!^G=G- | %48
 (3G!>!^F=F- (3F!>!^DE- (3:2:2E2 ^C (3:2:2C2 =D) |!pp! (3z (E^D (3EFE- (3:2:2E2 ^C) (3:2:2(C2 =D) | %50
 (3z (GA B2- (3BFG A2) | (3z (E^D (3EFE- (3:2:2E2 ^C) (3:2:2(C2 =D) | %52
 (3z[K:bass] (G,A, B,2- (3B,)(F,G, A,2) | (3z (G,A, B,2-"_morendo" (3B,)(F,G, A,2- | %54
 (3:2:2A,2 B,) (3:2:2(B,2 A,) (3:2:2(B,2 A,) (3:2:2(B,2 A,) | %55
 (!>!C2- (3:2:2C2 B,!pppp! !fermata!A,4) |] %56
V:2
 [FA]4 [GA]4 | [FA]2 z2 [D-A]4 | [DG]2 z2 !1![CD]4 | [B,D]2 [EG]2 [EG]4 | x8 | x8 | x8 | x8 | x8 | %9
 x8 | x8 | x8 | x8 | x8 | x8 | x4 [F,A,]4 | x8 | (3z (EF (3^FG^G) (!>!B2 A2) | x8 | %19
 (3z (E^D (3EFE) (!>!B2 A2) | (3z (G^F (3GAG) !>!d2 [G^c]2 | x8 | x8 | x8 | x8 | x8 | x8 | x8 | %28
 x8 | D4 x4 | D4 x4 | x8 | x8 | [FA]4 [GA]4 | [FA]2 z2 [D-A]4 | [DG]2 z2 !1![CD]4 | %36
 [B,D]2 [EG]2 [EG]4 | x8 | x8 | x8 | x8 | x8 | x8 | x8 | x8 | x8 | x8 | x8 | x4 [F,A,]4 | %49
 x4 [F,A,]4 | x8 | x4 [F,A,]4 | x2/3[K:bass] x22/3 | x8 | x8 | x8 |] %56
V:3
!ped! [D,A,D]4!ped! [D,A,^C]4!ped-up! | [D,A,D]2 z2 (!1!A,4 | %2
 !2!G,2) z2!ped! !5!!2![A,,D,]4!ped-up! | z2 !1!B,2!ped! A,4!ped-up! | %4
!ped! z2 [A,^CE]2!ped! z2 [A,DF]2!ped-up! | z2!ped! [A,^CG]2!ped! z2 [A,=C^F]2!ped-up! | %6
!ped! G,,2 [G,B,DG]2"_simile" ^G,,2 [^G,=B,DF]2!ped-up! | A,,2 [A,DF]2 A,,2 [G,A,^C]2 | %8
!ped! z2 (!1!F4!ped-up!!ped! !1!E2- |!ped! E!4!D!3!^G,!2!A,)!ped-up!!ped! (!1!D3 !1!C!ped-up! | %10
!ped! B,) z (!>!!1!B,4!ped-up! !2!^F,2- | F,)!ped!(!1!G, !2!E!1!D)!ped-up!!ped! (D2 ^C2)!ped-up! | %12
!ped! z2 (!>!=G2-!ped-up! (3GFE (3:2:2G2 F) | %13
!ped! (!1!F2 !1!E2-!ped-up! (3E!2!D!3!^C (3:2:2!1!E2 !3!D) | %14
!ped! (=C2 B,2)!ped-up!!ped! A,,2 [F,A,D]2!ped-up! | %15
!ped! A,,2 [G,A,^C]2!ped-up!!ped! [D,,A,,]4!ped-up! | %16
!ped! B,,2 [G,=CE]2!ped! A,,2!ped-up! [A,CF]2 | G,,2"_simile" [B,CE]2 F,,2 [A,CF]2 | %18
 B,,2 [G,CE]2 A,,2 [A,CF]2 | G,,2 [G,A,]2 F,,2 [F,A,D]2 | %20
 ^C,,2 [G,A,E]2 B,,2 !arpeggio!!fermata![A,,E,A,E]2 |!ped! x4!ped-up!"_simile" (3z z D (3=FED | %22
 (!1!F2 E2) (3z z (C (3ED^C) | (!1!E2 D2) x4 | E,,2 [E,G,D]2 A,,2 [E,A,E]2 | x4 (3z z D (3=FED | %26
 (F2 E2) (3z z (C (3ED^C) | (!1!E2 D2) x4 | E,,2 [E,G,D]2 A,,2 [E,A,E]2 | %29
 E,4- (3E,E,^D, (3:2:2=F,2 E, | E,4- (3E,E,^D, (3:2:2=F,2 E, | %31
 (3:2:2A,2 G, (3:2:2D2 ^C (3(FED- (3DCB,- | %32
 (3:2:2B,2 A,- (3:2:2A,2 G,- (3:2:2G,2 F,- (3:2:2F,2 E,) |"_Con Ped." [D,A,D]4 [D,A,^C]4 | %34
 [D,A,D]2 z2 (A,4 | G,2) z2 [A,,D,]4 | z2 B,2 A,4 | z2 [A,^CE]2 z2 [A,DF]2 | %38
 z2 [A,^CG]2 z2 [A,=C^F]2 | G,,2 [G,B,DG]2 ^G,,2 [^G,=B,DF]2 | A,,2 [A,DF]2 A,,2 [G,A,^C]2 | %41
 z2 F4 E2 | ED^G,A, (D3 C | B,) z (!>!B,4 ^F,2- | F,)(G, ED) (D2 ^C2) | %45
 z2 (!>!=G2- (3GFE (3:2:2G2 F) | (F2 E2- (3ED^C (3:2:2E2 D) | (=C2 B,2) A,,2 [F,A,D]2 | %48
 A,,2 [G,A,^C]2 [D,,A,,]4 | [D,G,B,D]4 [D,,A,,]4 | [D,G,B,D]4 [D,,A,,]4 | [D,G,B,D]4 [D,,A,,]4 | %52
 [D,,E,,D,]4 [D,,A,,]4 | [D,,E,,D,]4 [D,,A,,]4 | [D,F,D]4- [D,F,D] z z2 | !fermata!z8 |] %56
V:4
 x8 | x4 (!4!F,2 !3!^F,2 | G,2) x6 | [B,,D,]4 [A,,E,]4 | G,4 !5!F,4 | E,4 D,4 | x8 | x8 | %8
 [D,F,A,]4 [G,A,]4 | [F,A,]2 z2 [^F,A,]4 | !arpeggio![G,,D,]2 z2 [C,D,]4 | %11
 [B,,D,] z z2 !arpeggio![A,,E,]2 z2 | !5!!4![B,=C]4 !5!!4![A,C]4 | [G,A,]4 [F,A,]4 | %14
{/G,,} [D,G,]4 z4 | x8 | x8 | x8 | x8 | x8 | x8 | ^F,,2 [^F,=CD]2 G,,2 [G,B,]2 | %22
{/C,} [G,C]4 F,,2 [F,A,]2 |{/B,,} [F,B,]4 G,,2 [G,B,D]2 | x8 | ^F,,2 [^F,=CD]2 G,,2 [G,B,]2 | %26
{/C,} [G,C]4 F,,2 [F,A,]2 |{/B,,} [F,B,]4 G,,2 [G,B,D]2 | x8 | ([G,,B,]4 [A,,A,]) z z2 | %30
 ([G,,B,]4 [A,,A,]) z z2 | x8 | x8 | x8 | x4 (F,2 ^F,2 | G,2) x6 | [B,,D,]4 [A,,E,]4 | G,4 F,4 | %38
 E,4 D,4 | x8 | x8 | [D,F,A,]4 [G,A,]4 | [F,A,]2 z2 [^F,A,]4 | !arpeggio![G,,D,]2 z2 [C,D,]4 | %44
 [B,,D,] z z2 !arpeggio![A,,E,]2 z2 | [B,=C]4 [A,C]4 | [G,A,]4 [F,A,]4 |{/G,,} [D,G,]4 z4 | x8 | %49
 x8 | x8 | x8 | x8 | x8 | x8 | x8 |] %56

